icons/svg/readability.svg

﻿<?xml version="1.0" encoding="utf-8"?>
<!DOCTYPE svg PUBLIC "-//W3C//DTD SVG 1.1//EN" "http://www.w3.org/Graphics/SVG/1.1/DTD/svg11.dtd">
<svg xmlns="http://www.w3.org/2000/svg" xmlns:xlink="http://www.w3.org/1999/xlink" version="1.1" baseProfile="full" width="24" height="24" viewBox="0 0 24.00 24.00" enable-background="new 0 0 24.00 24.00" xml:space="preserve">
	<path fill="#000000" fill-opacity="1" stroke-linejoin="round" d="M 12,4C 15.1496,4 17.8133,6.37722 18.6924,9.64732C 18.0258,10.1513 17.5762,10.9273 17.5088,11.8101L 17.3249,13.9125C 15.5499,13.0259 13.775,12.1667 12,12.1667C 10.2262,12.1667 8.45241,13.0248 6.67862,13.9107L 6.49119,11.7683C 6.42407,10.8896 5.97843,10.1168 5.317,9.61264C 6.20556,6.36043 8.86158,4 12,4 Z M 17.0548,17L 6.9489,17L 6.72752,14.4696C 8.48501,13.5924 10.2425,12.75 12,12.75C 13.7587,12.75 15.5173,13.5935 17.276,14.4714L 17.0548,17 Z M 5,19L 5,18L 3.7179,14.4906L 3.5,14.5C 2.11929,14.5 0.999998,13.3807 0.999998,12C 0.999998,10.6193 2.11929,9.50001 3.5,9.50001C 4.81562,9.50001 5.8939,10.5163 5.99262,11.8066L 6.49999,18L 6.49999,19L 5,19 Z M 19,19L 17.5,19L 17.5,18L 18.0074,11.8066C 18.1061,10.5163 19.1844,9.5 20.5,9.5C 21.8807,9.5 23,10.6193 23,12C 23,13.3807 21.8807,14.5 20.5,14.5L 20.2821,14.4906L 19,18L 19,19 Z "/>
</svg>

<svg xmlns="http://www.w3.org/2000/svg" version="1.1" baseProfile="full" width="24" height="24" viewBox="0 0 24.00 24.00" xml:space="preserve"><path fill="#000" fill-opacity="1" stroke-linejoin="round" d="M12 4c3.15 0 5.813 2.377 6.692 5.647-.666.504-1.116 1.28-1.183 2.163l-.185 2.102c-1.775-.886-3.55-1.745-5.325-1.745-1.774 0-3.548.858-5.32 1.744l-.19-2.142c-.066-.878-.512-1.65-1.173-2.155C6.207 6.36 8.862 4 12 4zm5.055 13H6.95l-.222-2.53c1.757-.878 3.514-1.72 5.272-1.72 1.76 0 3.517.844 5.276 1.72l-.22 2.53zM5 19v-1l-1.282-3.51-.218.01C2.12 14.5 1 13.38 1 12s1.12-2.5 2.5-2.5c1.316 0 2.394 1.016 2.493 2.307L6.5 18v1H5zm14 0h-1.5v-1l.507-6.193c.1-1.29 1.177-2.307 2.493-2.307 1.38 0 2.5 1.12 2.5 2.5s-1.12 2.5-2.5 2.5l-.218-.01L19 18v1z"/></svg>
